apps/marketing/public/isotipo.svg

<svg xmlns="http://www.w3.org/2000/svg" width="941" height="941" fill="none"><path fill="#F6F0E1" d="M0 0h941v941H0z"/><path fill="url(#a)" d="m443.125 104.818 1.161-.171c89.395-7.464 178.015 20.132 246.993 76.962a367.92 367.92 0 0 1 133.273 252.74c7.99 85.419-17.199 173.17-72.724 239.148a263.96 263.96 0 0 1-179.966 93.326c-73.198 5.735-146.042-15.492-201.653-64.1-101.041-88.317-126.955-251.912-35.063-356.163a215.23 215.23 0 0 1 148.365-71.969c53.747-3.027 108.312 15.062 148.238 51.461a171.12 171.12 0 0 1 54.682 119.26c2.853 71.916-36.528 130.677-106.688 149.921-9.219 2.434-19.368 4.538-28.946 4.576-53.645.219-119.487-43.035-109.576-103.337 2.923-17.788 8.599-29.523 21.392-41.989 10.477-10.212 23.273-15.478 37.819-14.859 16.595.71 29.783 12.26 24.063 29.423-3.834 8.965-14.756 17.214-15.351 27.396-1.362 23.319 21.935 38.774 43.097 39.286 17.441.425 32.93-8.599 44.645-20.526 37.583-38.261 26.476-100.941-9.546-136.028-25.303-24.67-57.06-34.268-91.611-34.05a147.96 147.96 0 0 0-104.348 43.728c-33.956 34.471-47.082 75.72-47.017 123.168.781 18.545 2.729 31.615 8.496 49.548a186.9 186.9 0 0 0 94.184 109.897c114.041 58.054 240.365.728 295.487-109.558a260.64 260.64 0 0 0 12.71-199.381 288.85 288.85 0 0 0-145.53-166.315C355.218 71.835 96.342 340.975 187.199 596.267c37.748 105.492 124.992 185.657 233.298 214.364a346 346 0 0 0 42.773 8.72c9.46 1.341 28.133 1.226 35.409 4.653 2.979 6.083 2.82 3.165 1.73 8.906-3.127 3.363-7.771 5.057-12.301 5.102-84.824.778-175.716-31.304-240.074-83.764a366.82 366.82 0 0 1-131.41-247.559 370.22 370.22 0 0 1 82.493-273.522 361.75 361.75 0 0 1 244.008-128.349"/><defs><linearGradient id="a" x1="373.422" x2="565.655" y1="119.806" y2="814.123" gradientUnits="userSpaceOnUse"><stop stop-color="#E09B3F"/><stop offset="1" stop-color="#DD8649"/></linearGradient></defs></svg>

<svg width="941" height="941" viewBox="0 0 941 941" fill="none" xmlns="http://www.w3.org/2000/svg">
<rect width="941" height="941" fill="#F6F0E1"/>
<path d="M443.125 104.818C443.511 104.762 443.9 104.703 444.286 104.647C533.681 97.1827 622.301 124.779 691.279 181.609C767.937 244.46 815.991 335.588 824.552 434.349C832.542 519.768 807.353 607.519 751.828 673.497C706.653 727.318 641.884 760.909 571.862 766.823C498.664 772.558 425.82 751.331 370.209 702.723C269.168 614.406 243.254 450.811 335.146 346.56C373.086 303.825 426.462 277.933 483.511 274.591C537.258 271.564 591.823 289.653 631.749 326.052C665.097 356.96 684.772 399.872 686.431 445.312C689.284 517.228 649.903 575.989 579.743 595.233C570.524 597.667 560.375 599.771 550.797 599.809C497.152 600.028 431.31 556.774 441.221 496.472C444.144 478.684 449.82 466.949 462.613 454.483C473.09 444.271 485.886 439.005 500.432 439.624C517.027 440.334 530.215 451.884 524.495 469.047C520.661 478.012 509.739 486.261 509.144 496.443C507.782 519.762 531.079 535.217 552.241 535.729C569.682 536.154 585.171 527.13 596.886 515.203C634.469 476.942 623.362 414.262 587.34 379.175C562.037 354.505 530.28 344.907 495.729 345.125C456.528 345.302 418.997 361.027 391.381 388.853C357.425 423.324 344.299 464.573 344.364 512.021C345.145 530.566 347.093 543.636 352.86 561.569C368.223 609.364 402.164 648.969 447.044 671.466C561.085 729.52 687.409 672.194 742.531 561.908C773.082 499.773 777.656 428.036 755.241 362.527C730.695 289.989 678.35 230.167 609.711 196.212C355.218 71.8353 96.3423 340.975 187.199 596.267C224.947 701.759 312.191 781.924 420.497 810.631C434.558 814.435 448.845 817.35 463.27 819.351C472.73 820.692 491.403 820.577 498.679 824.004C501.658 830.087 501.499 827.169 500.409 832.91C497.282 836.273 492.638 837.967 488.108 838.012C403.284 838.79 312.392 806.708 248.034 754.248C173.189 692.376 125.933 603.349 116.624 506.689C106.418 408.15 136.133 309.631 199.117 233.167C260.321 159.851 348.036 113.713 443.125 104.818Z" fill="url(#paint0_linear_1_124)"/>
<defs>
<linearGradient id="paint0_linear_1_124" x1="373.422" y1="119.806" x2="565.655" y2="814.123" gradientUnits="userSpaceOnUse">
<stop stop-color="#E09B3F"/>
<stop offset="1" stop-color="#DD8649"/>
</linearGradient>
</defs>
</svg>
